svg/shopping-cart-add.svg

<svg width="24" height="24" viewBox="0 0 24 24" fill="none" xmlns="http://www.w3.org/2000/svg">
<path d="M6.00913 16.1357L4.1421 4H3C2.44772 4 2 3.55228 2 3C2 2.44772 2.44772 2 3 2H4.9847C5.0806 1.99841 5.17434 2.01066 5.26367 2.03513C5.40561 2.07382 5.53497 2.143 5.64429 2.23519C5.76213 2.33437 5.85751 2.4609 5.91981 2.60698C5.95413 2.6872 5.97826 2.77281 5.99058 2.86219L6.31948 5H14V7H6.62717L7.85794 15H17.256L18.756 10H20.844L18.9578 16.2873C18.8309 16.7103 18.4416 17 18 17H7.01578C6.92133 17.0016 6.82899 16.9898 6.74088 16.9661C6.59074 16.9259 6.45453 16.8517 6.34104 16.7522C6.2371 16.6612 6.15157 16.5485 6.0921 16.4198C6.05113 16.3313 6.02271 16.2358 6.00913 16.1357Z" fill="#0D0D0D"/>
<path d="M10 20C10 21.1046 9.10457 22 8 22C6.89543 22 6 21.1046 6 20C6 18.8954 6.89543 18 8 18C9.10457 18 10 18.8954 10 20Z" fill="#0D0D0D"/>
<path d="M19 20C19 21.1046 18.1046 22 17 22C15.8954 22 15 21.1046 15 20C15 18.8954 15.8954 18 17 18C18.1046 18 19 18.8954 19 20Z" fill="#0D0D0D"/>
<path d="M19 2C19.5523 2 20 2.44772 20 3V4H21C21.5523 4 22 4.44772 22 5C22 5.55228 21.5523 6 21 6H20V7C20 7.55228 19.5523 8 19 8C18.4477 8 18 7.55228 18 7V6H17C16.4477 6 16 5.55228 16 5C16 4.44772 16.4477 4 17 4H18V3C18 2.44772 18.4477 2 19 2Z" fill="#0D0D0D"/>
</svg>

<svg width="24" height="24" fill="none" xmlns="http://www.w3.org/2000/svg"><path d="M6.01 16.136L4.141 4H3a1 1 0 010-2h1.985a.993.993 0 01.66.235.997.997 0 01.346.627L6.319 5H14v2H6.627l1.23 8h9.399l1.5-5h2.088l-1.886 6.287A1 1 0 0118 17H7.016a.993.993 0 01-.675-.248.999.999 0 01-.332-.616zM10 20a2 2 0 11-4 0 2 2 0 014 0zM19 20a2 2 0 11-4 0 2 2 0 014 0zM19 2a1 1 0 011 1v1h1a1 1 0 110 2h-1v1a1 1 0 11-2 0V6h-1a1 1 0 110-2h1V3a1 1 0 011-1z" fill="#0D0D0D"/></svg>
